X: 05092
T: The Novelty
R: reel
B: RSCDS 5-9(b)
N: From "Airs and Melodies" by Capt. S. Fraser 1816
Z: 1997 by John Chambers <jc:trillian.mit.edu>
M: C|
L: 1/8
%--------------------
K: Eb
|: E \
| "Eb"B,EG,E B,G,G,E | B,G,B,E G2GB \
| B,EG,E B,EGB | "Fm"AG"F7"FE "Bb"[F3D3] :|
|| c \
| "Eb"BGe2 BGGc | BGBc Bedc | BGe2 BGGB | "Fm"AGFE "Bb"F2FG
| "Eb"BGe2 BGGc | BGBe "Cm"g2"Bb"ga | "Eb"bged eBAG "Fm"AGFE "Bb"[F2D2]"d.C."FG |]
%%center Book05/05092-Novelty-1.abc

%%sep 1 1 500
%%sep 1 1 500

